X:1
T:Torpedo Waltz
M:3/8
L:1/8
R:Waltz
B:Elias Howe – Musician’s Omnibus Nos. 6 & 7 (Boston, 1880-1882, p. 645)
B:  http://ks4.imslp.net/files/imglnks/usimg/c/c7/IMSLP601433-PMLP562790-ONeill_Rare_Medium_M40_M8_v6.7_text.pdf
Z:AK/Fiddler’s Companion
K:F
c|cfA|Acf|a/>g/f/>e/d/>c/|BG g|gbe|ege|
=B/c/^c/d/^d/e/f2:||:G/>A/|B/>A/B/>c/d/>e/|faf|g/>f/e/>d/c/>B/|
A/>G/F G/>A/|B/>A/B/>c/d/>e/|f/>g/a/>b/c’|c/>b/g/>e/c/>e/|f2:|

